images/cross-chain-ico.svg

<svg width="118" height="96" viewBox="0 0 118 96" fill="none" xmlns="http://www.w3.org/2000/svg">
<path d="M91.2561 2.8787C90.3615 1.38992 88.1247 1.67082 87.626 3.33459L60.866 92.6088C60.2962 94.5097 57.6042 94.5097 57.0344 92.6088L30.2796 3.35181C29.78 1.68537 27.5382 1.40716 26.6465 2.90095L14.0373 24.024L1.45134 44.9686C0.538663 46.4874 1.90582 48.3552 3.62944 47.9442L97.0843 25.6638C99.0464 25.1961 100.389 27.5975 98.9622 29.0236L34.5813 93.3947C33.1122 94.8636 30.6549 93.3961 31.2514 91.4061L57.0344 5.39125C57.6042 3.49026 60.2962 3.49026 60.866 5.39125L86.6458 91.3955C87.2426 93.3862 84.7837 94.8535 83.315 93.3831L19.0281 29.0206C17.6032 27.594 18.9456 25.1941 20.907 25.6617L114.371 47.9442C116.094 48.3552 117.461 46.4874 116.549 44.9686L103.963 24.024L91.2561 2.8787Z" stroke="#10143E" stroke-width="2" stroke-miterlimit="10"/>
</svg>

<svg width="118" height="96" fill="none" xmlns="http://www.w3.org/2000/svg"><path d="M91.256 2.879c-.894-1.49-3.131-1.208-3.63.456l-26.76 89.274c-.57 1.9-3.262 1.9-3.832 0L30.28 3.352c-.5-1.667-2.742-1.945-3.634-.451L14.037 24.024 1.451 44.969c-.912 1.518.455 3.386 2.178 2.975l93.455-22.28c1.962-.468 3.305 1.933 1.878 3.36l-64.38 64.37c-1.47 1.47-3.927.002-3.33-1.988L57.033 5.391c.57-1.9 3.262-1.9 3.832 0l25.78 86.004c.597 1.991-1.862 3.459-3.331 1.988L19.028 29.021c-1.425-1.427-.082-3.827 1.879-3.36l93.464 22.283c1.723.411 3.09-1.457 2.178-2.975l-12.586-20.945L91.256 2.879z" stroke="#10143E" stroke-width="2" stroke-miterlimit="10"/></svg>
